src/img/plus.svg

<svg width="60" height="60" viewBox="0 0 60 60" fill="none" xmlns="http://www.w3.org/2000/svg">
<path d="M57.067 2.88232H2.89917V57.0502H57.067V2.88232Z" fill="url(#paint0_linear_323_58480)"/>
<path d="M2.89516 2.93701L57.063 2.93701V-5.126e-05L2.89516 -5.126e-05V2.93701Z" fill="#3B2027"/>
<path d="M2.89516 59.8491L57.063 59.8491V56.9121L2.89516 56.9121V59.8491Z" fill="#3B2027"/>
<path d="M57.0629 57.1846H60L60 2.93702H57.0629L57.0629 57.1846Z" fill="#3B2027"/>
<path d="M-5.126e-05 57.0503H2.93701L2.93701 2.80274H-5.126e-05L-5.126e-05 57.0503Z" fill="#3B2027"/>
<path d="M54.13 2.93701H5.87402V5.87407H54.13V2.93701Z" fill="#FFEE83"/>
<path d="M57.0672 5.87402H54.1301V8.81109H57.0672V5.87402Z" fill="#FFEE83"/>
<path d="M5.87407 5.87402H2.93701V8.81109H5.87407V5.87402Z" fill="#FFEE83"/>
<path d="M5.87418 56.9121L54.1301 56.9121V53.975L5.87418 53.975V56.9121Z" fill="#CF752B"/>
<path d="M2.93696 53.9751H5.87402V51.038H2.93696L2.93696 53.9751Z" fill="#CF752B"/>
<path d="M54.1259 53.9751H57.063V51.038H54.1259V53.9751Z" fill="#CF752B"/>
<path d="M33.088 44.7661H30.1216V47.7325H33.088V44.7661Z" fill="#3B2027"/>
<path d="M30.1173 44.7661H27.1509V47.7325H30.1173V44.7661Z" fill="#3B2027"/>
<path d="M36.0546 41.7988H33.0881V44.7653H36.0546V41.7988Z" fill="#3B2027"/>
<path d="M33.088 41.7988H30.1216V44.7653H33.088V41.7988Z" fill="#F5FFE8"/>
<path d="M30.1176 41.7988H27.1511V44.7653H30.1176V41.7988Z" fill="#F5FFE8"/>
<path d="M27.151 41.7988H24.1846V44.7653H27.151V41.7988Z" fill="#3B2027"/>
<path d="M36.0546 38.8281H33.0881V41.7946H36.0546V38.8281Z" fill="#3B2027"/>
<path d="M33.088 38.8281H30.1216V41.7946H33.088V38.8281Z" fill="#F5FFE8"/>
<path d="M30.1176 38.8281H27.1511V41.7946H30.1176V38.8281Z" fill="#F5FFE8"/>
<path d="M27.151 38.8281H24.1846V41.7946H27.151V38.8281Z" fill="#3B2027"/>
<path d="M36.0546 35.8613H33.0881V38.8278H36.0546V35.8613Z" fill="#3B2027"/>
<path d="M33.088 35.8613H30.1216V38.8278H33.088V35.8613Z" fill="#F5FFE8"/>
<path d="M30.1176 35.8613H27.1511V38.8278H30.1176V35.8613Z" fill="#F5FFE8"/>
<path d="M27.151 35.8613H24.1846V38.8278H27.151V35.8613Z" fill="#3B2027"/>
<path d="M44.9581 32.895H41.9917V35.8615H44.9581V32.895Z" fill="#3B2027"/>
<path d="M41.9916 32.895H39.0251V35.8615H41.9916V32.895Z" fill="#3B2027"/>
<path d="M39.0211 32.895H36.0547V35.8615H39.0211V32.895Z" fill="#3B2027"/>
<path d="M36.0546 32.895H33.0881V35.8615H36.0546V32.895Z" fill="#3B2027"/>
<path d="M33.088 32.895H30.1216V35.8615H33.088V32.895Z" fill="#F5FFE8"/>
<path d="M30.1176 32.895H27.1511V35.8615H30.1176V32.895Z" fill="#F5FFE8"/>
<path d="M27.151 32.895H24.1846V35.8615H27.151V32.895Z" fill="#3B2027"/>
<path d="M24.1847 32.895H21.2183V35.8615H24.1847V32.895Z" fill="#3B2027"/>
<path d="M21.214 32.895H18.2476V35.8615H21.214V32.895Z" fill="#3B2027"/>
<path d="M18.2477 32.895H15.2812V35.8615H18.2477V32.895Z" fill="#3B2027"/>
<path d="M47.9244 29.9243H44.958V32.8907H47.9244V29.9243Z" fill="#3B2027"/>
<path d="M44.9581 29.9243H41.9917V32.8907H44.9581V29.9243Z" fill="#F5FFE8"/>
<path d="M41.9916 29.9243H39.0251V32.8907H41.9916V29.9243Z" fill="#F5FFE8"/>
<path d="M39.0211 29.9243H36.0547V32.8907H39.0211V29.9243Z" fill="#F5FFE8"/>
<path d="M36.0546 29.9243H33.0881V32.8907H36.0546V29.9243Z" fill="#F5FFE8"/>
<path d="M33.088 29.9243H30.1216V32.8907H33.088V29.9243Z" fill="#F5FFE8"/>
<path d="M30.1176 29.9243H27.1511V32.8907H30.1176V29.9243Z" fill="#F5FFE8"/>
<path d="M27.151 29.9243H24.1846V32.8907H27.151V29.9243Z" fill="#F5FFE8"/>
<path d="M24.1847 29.9243H21.2183V32.8907H24.1847V29.9243Z" fill="#F5FFE8"/>
<path d="M21.214 29.9243H18.2476V32.8907H21.214V29.9243Z" fill="#F5FFE8"/>
<path d="M18.2477 29.9243H15.2812V32.8907H18.2477V29.9243Z" fill="#F5FFE8"/>
<path d="M15.2811 29.9243H12.3147V32.8907H15.2811V29.9243Z" fill="#3B2027"/>
<path d="M47.9244 26.958H44.958V29.9244H47.9244V26.958Z" fill="#3B2027"/>
<path d="M44.9581 26.958H41.9917V29.9244H44.9581V26.958Z" fill="#F5FFE8"/>
<path d="M41.9916 26.958H39.0251V29.9244H41.9916V26.958Z" fill="#F5FFE8"/>
<path d="M39.0211 26.958H36.0547V29.9244H39.0211V26.958Z" fill="#F5FFE8"/>
<path d="M36.0546 26.958H33.0881V29.9244H36.0546V26.958Z" fill="#F5FFE8"/>
<path d="M33.088 26.958H30.1216V29.9244H33.088V26.958Z" fill="#F5FFE8"/>
<path d="M30.1176 26.958H27.1511V29.9244H30.1176V26.958Z" fill="#F5FFE8"/>
<path d="M27.151 26.958H24.1846V29.9244H27.151V26.958Z" fill="#F5FFE8"/>
<path d="M24.1847 26.958H21.2183V29.9244H24.1847V26.958Z" fill="#F5FFE8"/>
<path d="M21.214 26.958H18.2476V29.9244H21.214V26.958Z" fill="#F5FFE8"/>
<path d="M18.2477 26.958H15.2812V29.9244H18.2477V26.958Z" fill="#F5FFE8"/>
<path d="M15.2811 26.958H12.3147V29.9244H15.2811V26.958Z" fill="#3B2027"/>
<path d="M44.9581 23.9917H41.9917V26.9581H44.9581V23.9917Z" fill="#3B2027"/>
<path d="M41.9916 23.9917H39.0251V26.9581H41.9916V23.9917Z" fill="#3B2027"/>
<path d="M39.0211 23.9917H36.0547V26.9581H39.0211V23.9917Z" fill="#3B2027"/>
<path d="M36.0546 23.9917H33.0881V26.9581H36.0546V23.9917Z" fill="#3B2027"/>
<path d="M33.088 23.9917H30.1216V26.9581H33.088V23.9917Z" fill="#F5FFE8"/>
<path d="M30.1176 23.9917H27.1511V26.9581H30.1176V23.9917Z" fill="#F5FFE8"/>
<path d="M27.151 23.9917H24.1846V26.9581H27.151V23.9917Z" fill="#3B2027"/>
<path d="M24.1847 23.9917H21.2183V26.9581H24.1847V23.9917Z" fill="#3B2027"/>
<path d="M21.214 23.9917H18.2476V26.9581H21.214V23.9917Z" fill="#3B2027"/>
<path d="M18.2477 23.9917H15.2812V26.9581H18.2477V23.9917Z" fill="#3B2027"/>
<path d="M36.0546 21.021H33.0881V23.9874H36.0546V21.021Z" fill="#3B2027"/>
<path d="M33.088 21.021H30.1216V23.9874H33.088V21.021Z" fill="#F5FFE8"/>
<path d="M30.1176 21.021H27.1511V23.9874H30.1176V21.021Z" fill="#F5FFE8"/>
<path d="M27.151 21.021H24.1846V23.9874H27.151V21.021Z" fill="#3B2027"/>
<path d="M36.0546 18.0547H33.0881V21.0211H36.0546V18.0547Z" fill="#3B2027"/>
<path d="M33.088 18.0547H30.1216V21.0211H33.088V18.0547Z" fill="#F5FFE8"/>
<path d="M30.1176 18.0547H27.1511V21.0211H30.1176V18.0547Z" fill="#F5FFE8"/>
<path d="M27.151 18.0547H24.1846V21.0211H27.151V18.0547Z" fill="#3B2027"/>
<path d="M36.0546 15.0879H33.0881V18.0543H36.0546V15.0879Z" fill="#3B2027"/>
<path d="M33.088 15.0879H30.1216V18.0543H33.088V15.0879Z" fill="#F5FFE8"/>
<path d="M30.1176 15.0879H27.1511V18.0543H30.1176V15.0879Z" fill="#F5FFE8"/>
<path d="M27.151 15.0879H24.1846V18.0543H27.151V15.0879Z" fill="#3B2027"/>
<path d="M33.088 12.1177H30.1216V15.0841H33.088V12.1177Z" fill="#3B2027"/>
<path d="M30.1176 12.1177H27.1511V15.0841H30.1176V12.1177Z" fill="#3B2027"/>
<defs>
<linearGradient id="paint0_linear_323_58480" x1="2.89917" y1="29.9662" x2="57.067" y2="29.9662" gradientUnits="userSpaceOnUse">
<stop stop-color="#F0B541"/>
<stop offset="1" stop-color="#DFA22B"/>
</linearGradient>
</defs>
</svg>

<svg width="60" height="60" fill="none" xmlns="http://www.w3.org/2000/svg"><path d="M57.067 2.882H2.899V57.05h54.168V2.882z" fill="url(#paint0_linear_323_58480)"/><path d="M2.895 2.937h54.168V0H2.895v2.937zm0 56.913h54.168v-2.938H2.895v2.937zm54.168-2.665H60V2.937h-2.937v54.248z" fill="#3B2027"/><path d="M0 57.05h2.937V2.803H0V57.05z" fill="#3B2027"/><path d="M54.13 2.937H5.874v2.937H54.13V2.937zm2.937 2.937H54.13v2.937h2.937V5.874zm-51.193 0H2.937v2.937h2.937V5.874z" fill="#FFEE83"/><path d="M5.874 56.912H54.13v-2.937H5.874v2.937zm-2.937-2.937h2.937v-2.937H2.937v2.937zm51.189 0h2.937v-2.937h-2.937v2.937z" fill="#CF752B"/><path d="M33.088 44.766h-2.966v2.967h2.966v-2.967zm-2.971 0h-2.966v2.967h2.966v-2.967zm5.938-2.967h-2.967v2.966h2.967V41.8z" fill="#3B2027"/><path d="M33.088 41.799h-2.966v2.966h2.966V41.8zm-2.97 0H27.15v2.966h2.967V41.8z" fill="#F5FFE8"/><path d="M27.151 41.799h-2.966v2.966h2.966V41.8zm8.904-2.971h-2.967v2.967h2.967v-2.967z" fill="#3B2027"/><path d="M33.088 38.828h-2.966v2.967h2.966v-2.967zm-2.97 0H27.15v2.967h2.967v-2.967z" fill="#F5FFE8"/><path d="M27.151 38.828h-2.966v2.967h2.966v-2.967zm8.904-2.967h-2.967v2.967h2.967V35.86z" fill="#3B2027"/><path d="M33.088 35.861h-2.966v2.967h2.966V35.86zm-2.97 0H27.15v2.967h2.967V35.86z" fill="#F5FFE8"/><path d="M27.151 35.861h-2.966v2.967h2.966V35.86zm17.807-2.966h-2.966v2.966h2.966v-2.966zm-2.966 0h-2.967v2.966h2.967v-2.966zm-2.971 0h-2.966v2.966h2.966v-2.966zm-2.966 0h-2.967v2.966h2.967v-2.966z" fill="#3B2027"/><path d="M33.088 32.895h-2.966v2.966h2.966v-2.966zm-2.97 0H27.15v2.966h2.967v-2.966z" fill="#F5FFE8"/><path d="M27.151 32.895h-2.966v2.966h2.966v-2.966zm-2.966 0h-2.967v2.966h2.967v-2.966zm-2.971 0h-2.966v2.966h2.966v-2.966z" fill="#3B2027"/><path d="M18.248 32.895H15.28v2.966h2.967v-2.966zm29.676-2.971h-2.966v2.967h2.966v-2.967z" fill="#3B2027"/><path d="M44.958 29.924h-2.966v2.967h2.966v-2.967zm-2.966 0h-2.967v2.967h2.967v-2.967zm-2.971 0h-2.966v2.967h2.966v-2.967zm-2.966 0h-2.967v2.967h2.967v-2.967zm-2.967 0h-2.966v2.967h2.966v-2.967zm-2.97 0H27.15v2.967h2.967v-2.967z" fill="#F5FFE8"/><path d="M27.151 29.924h-2.966v2.967h2.966v-2.967zm-2.966 0h-2.967v2.967h2.967v-2.967zm-2.971 0h-2.966v2.967h2.966v-2.967z" fill="#F5FFE8"/><path d="M18.248 29.924H15.28v2.967h2.967v-2.967z" fill="#F5FFE8"/><path d="M15.281 29.924h-2.966v2.967h2.966v-2.967zm32.643-2.966h-2.966v2.966h2.966v-2.966z" fill="#3B2027"/><path d="M44.958 26.958h-2.966v2.966h2.966v-2.966zm-2.966 0h-2.967v2.966h2.967v-2.966zm-2.971 0h-2.966v2.966h2.966v-2.966zm-2.966 0h-2.967v2.966h2.967v-2.966zm-2.967 0h-2.966v2.966h2.966v-2.966zm-2.97 0H27.15v2.966h2.967v-2.966z" fill="#F5FFE8"/><path d="M27.151 26.958h-2.966v2.966h2.966v-2.966zm-2.966 0h-2.967v2.966h2.967v-2.966zm-2.971 0h-2.966v2.966h2.966v-2.966z" fill="#F5FFE8"/><path d="M18.248 26.958H15.28v2.966h2.967v-2.966z" fill="#F5FFE8"/><path d="M15.281 26.958h-2.966v2.966h2.966v-2.966zm29.677-2.966h-2.966v2.966h2.966v-2.966zm-2.966 0h-2.967v2.966h2.967v-2.966zm-2.971 0h-2.966v2.966h2.966v-2.966zm-2.966 0h-2.967v2.966h2.967v-2.966z" fill="#3B2027"/><path d="M33.088 23.992h-2.966v2.966h2.966v-2.966zm-2.97 0H27.15v2.966h2.967v-2.966z" fill="#F5FFE8"/><path d="M27.151 23.992h-2.966v2.966h2.966v-2.966zm-2.966 0h-2.967v2.966h2.967v-2.966zm-2.971 0h-2.966v2.966h2.966v-2.966z" fill="#3B2027"/><path d="M18.248 23.992H15.28v2.966h2.967v-2.966zm17.807-2.971h-2.967v2.966h2.967v-2.966z" fill="#3B2027"/><path d="M33.088 21.021h-2.966v2.966h2.966v-2.966zm-2.97 0H27.15v2.966h2.967v-2.966z" fill="#F5FFE8"/><path d="M27.151 21.021h-2.966v2.966h2.966v-2.966zm8.904-2.966h-2.967v2.966h2.967v-2.966z" fill="#3B2027"/><path d="M33.088 18.055h-2.966v2.966h2.966v-2.966zm-2.97 0H27.15v2.966h2.967v-2.966z" fill="#F5FFE8"/><path d="M27.151 18.055h-2.966v2.966h2.966v-2.966zm8.904-2.967h-2.967v2.966h2.967v-2.966z" fill="#3B2027"/><path d="M33.088 15.088h-2.966v2.966h2.966v-2.966zm-2.97 0H27.15v2.966h2.967v-2.966z" fill="#F5FFE8"/><path d="M27.151 15.088h-2.966v2.966h2.966v-2.966zm5.937-2.97h-2.966v2.966h2.966v-2.966zm-2.97 0H27.15v2.966h2.967v-2.966z" fill="#3B2027"/><defs><linearGradient id="paint0_linear_323_58480" x1="2.899" y1="29.966" x2="57.067" y2="29.966" gradientUnits="userSpaceOnUse"><stop stop-color="#F0B541"/><stop offset="1" stop-color="#DFA22B"/></linearGradient></defs></svg>
